icons/editor/code.svg

<svg width="32" height="32" viewBox="0 0 32 32" fill="none" xmlns="http://www.w3.org/2000/svg">
<path fill-rule="evenodd" clip-rule="evenodd" d="M12.0422 25.7126L18.0423 5.71265L19.9579 6.28735L13.9579 26.2873L12.0422 25.7126ZM27.5861 16L22.293 10.7071L23.7072 9.29288L29.7074 15.2929L30.4145 16L29.7074 16.7072L23.7072 22.7071L22.293 21.2929L27.5861 16ZM8.29275 9.29291L2.293 15.2929L1.58594 16L2.293 16.7071L8.29276 22.7071L9.707 21.2929L4.41431 16L9.707 10.7071L8.29275 9.29291Z" fill="black"/>
</svg>

<svg viewBox="0 0 32 32" xmlns="http://www.w3.org/2000/svg"><path fill-rule="evenodd" d="M12.042 25.713l6-20 1.916.574-6 20-1.916-.574zM27.586 16l-5.293-5.293 1.414-1.414 6 6 .707.707-.707.707-6 6-1.414-1.414L27.586 16zM8.293 9.293l-6 6-.707.707.707.707 6 6 1.414-1.414L4.414 16l5.293-5.293-1.414-1.414z"/></svg>
